icons/chat-3-line.svg

<svg xmlns="http://www.w3.org/2000/svg" width="24" height="24" fill="none"><g clip-path="url(#a)"><g><path fill="#121212" d="M7.291 20.824L2 22L3.176 16.709C2.40153 15.2604 1.99753 13.6426 2 12C2 6.477 6.477 2 12 2C17.523 2 22 6.477 22 12C22 17.523 17.523 22 12 22C10.3574 22.0025 8.73962 21.5985 7.291 20.824ZM7.581 18.711L8.234 19.061C9.39255 19.6801 10.6864 20.0027 12 20C13.5823 20 15.129 19.5308 16.4446 18.6518C17.7602 17.7727 18.7855 16.5233 19.391 15.0615C19.9965 13.5997 20.155 11.9911 19.8463 10.4393C19.5376 8.88743 18.7757 7.46197 17.6569 6.34315C16.538 5.22433 15.1126 4.4624 13.5607 4.15372C12.0089 3.84504 10.4003 4.00346 8.93853 4.60896C7.47672 5.21447 6.22729 6.23984 5.34824 7.55544C4.46919 8.87103 4 10.4177 4 12C4 13.334 4.325 14.618 4.94 15.766L5.289 16.419L4.634 19.366L7.581 18.711Z"/></g></g><defs><clipPath id="a"><rect width="24" height="24" fill="white"/></clipPath></defs></svg>

<svg width="24" height="24" fill="none" xmlns="http://www.w3.org/2000/svg"><g clip-path="url(#a)"><path d="M7.291 20.824 2 22l1.176-5.291A9.956 9.956 0 0 1 2 12C2 6.477 6.477 2 12 2s10 4.477 10 10-4.477 10-10 10a9.955 9.955 0 0 1-4.709-1.176Zm.29-2.113.653.35A7.956 7.956 0 0 0 12 20a8 8 0 1 0-8-8c0 1.334.325 2.618.94 3.766l.349.653-.655 2.947 2.947-.655Z" /></g><defs><clipPath id="a"><path fill="#fff" d="M0 0h24v24H0z"/></clipPath></defs></svg>
